assets/symbols/mulberry/key_1.svg

<svg height="850.394" viewBox="0 0 850.394 850.394" width="850.394" xmlns="http://www.w3.org/2000/svg"><path d="m288.94 77.08h69.79v27.44h-69.79zm0 84.71h69.79v27.44h-69.79zm107.97-98.43v141.98h-38.18v-141.98zm45.33-6.85v574.14h-45.33v-574.14zm102.6 646.92c4.12 18.41 16.12 43.54 0 59.65-27.68 27.68-106.729 32.189-120.74 32.78-14.01-.591-93.05-5.101-120.74-32.78-16.1-16.11-4.11-41.24 0-59.65 9.34-41.76 20.28-72.779 20.28-72.779h200.919c.001-.001 10.951 31.019 20.281 72.779zm-65.61 37.58c0-14.17-25.641-25.649-57.271-25.649-31.62 0-57.26 11.479-57.26 25.649 0 14.16 25.64 25.65 57.26 25.65 31.631 0 57.271-11.49 57.271-25.65z" fill="#fbed24"/><g fill="none"><g stroke="#231f20" stroke-width="21"><path d="m396.91 630.65v-425.31m0-141.98v-6.85h45.33v574.14m-16 165.29s-.75-.021-2.14-.08c-14.01-.591-93.05-5.101-120.74-32.78-16.1-16.11-4.11-41.24 0-59.65 9.34-41.76 20.28-72.779 20.28-72.779h200.919s10.95 31.02 20.28 72.779c4.12 18.41 16.12 43.54 0 59.65-27.68 27.68-106.729 32.189-120.74 32.78-1.39.06-2.14.08-2.14.08"/><path d="m364.7 741.01c0-14.17 25.64-25.649 57.26-25.649 31.63 0 57.271 11.479 57.271 25.649 0 14.16-25.641 25.65-57.271 25.65-31.62 0-57.26-11.49-57.26-25.65zm-5.97-579.22v-57.27m0-27.44v-13.72h38.18v141.98h-38.18v-16.11m-69.79-27.44h69.79v27.44h-69.79zm0-84.71h69.79v27.44h-69.79z"/></g><path d="m0 0h850.394v850.394h-850.394z"/></g></svg>

<svg xmlns="http://www.w3.org/2000/svg" width="850.394" height="850.394" viewBox="0 0 850.394 850.394" overflow="visible"><g fill="#fbed24"><path d="M288.94 77.08h69.79v27.44h-69.79zM288.94 161.79h69.79v27.44h-69.79zM396.91 63.36v141.98h-38.18V63.36zM442.24 56.51v574.14h-45.33V56.51zM544.84 703.43c4.12 18.41 16.12 43.54 0 59.65-27.68 27.68-106.729 32.189-120.74 32.78-14.01-.591-93.05-5.101-120.74-32.78-16.1-16.11-4.11-41.24 0-59.65 9.34-41.76 20.28-72.779 20.28-72.779H524.559c.001-.001 10.951 31.019 20.281 72.779zm-65.61 37.58c0-14.17-25.641-25.649-57.271-25.649-31.62 0-57.26 11.479-57.26 25.649 0 14.16 25.64 25.65 57.26 25.65 31.631 0 57.271-11.49 57.271-25.65z"/></g><g fill="none" stroke="#231f20" stroke-width="21"><path d="M396.91 630.65V205.34M396.91 63.36v-6.85h45.33v574.14M426.24 795.94s-.75-.021-2.14-.08c-14.01-.591-93.05-5.101-120.74-32.78-16.1-16.11-4.11-41.24 0-59.65 9.34-41.76 20.28-72.779 20.28-72.779H524.559s10.95 31.02 20.28 72.779c4.12 18.41 16.12 43.54 0 59.65-27.68 27.68-106.729 32.189-120.74 32.78-1.39.06-2.14.08-2.14.08"/><path d="M364.7 741.01c0-14.17 25.64-25.649 57.26-25.649 31.63 0 57.271 11.479 57.271 25.649 0 14.16-25.641 25.65-57.271 25.65-31.62 0-57.26-11.49-57.26-25.65zM358.73 161.79v-57.27M358.73 77.08V63.36h38.18v141.98h-38.18v-16.11M288.94 161.79h69.79v27.44h-69.79zM288.94 77.08h69.79v27.44h-69.79z"/></g><path fill="none" d="M0 0h850.394v850.394H0z"/></svg>
